source/img/svg/icon-skype.svg

<svg width="24" height="24" viewBox="0 0 24 24" fill="none" xmlns="http://www.w3.org/2000/svg">
<g filter="url(#filter0_i)">
<rect width="24" height="24" rx="6" fill="#00B5EE"/>
<path d="M15.708 21C14.9187 21 14.1367 20.825 13.4312 20.4923C12.9296 20.5746 12.4981 20.6133 12.0886 20.6133C7.32916 20.6133 3.45703 16.788 3.45703 12.0861C3.45703 11.6283 3.50249 11.1519 3.59546 10.6371C3.20517 9.89598 3 9.06871 3 8.22771C3 5.34517 5.37442 3 8.29308 3C9.20137 3 10.0888 3.22934 10.876 3.6655C11.2345 3.61935 11.6269 3.59766 12.0886 3.59766C14.3884 3.59766 16.5474 4.47835 18.1677 6.07727C19.7901 7.67839 20.6836 9.81248 20.6836 12.0864C20.6836 12.6888 20.6425 13.1998 20.5553 13.6724C20.8506 14.332 21 15.0372 21 15.7723C21 18.6548 18.626 21 15.708 21ZM13.6533 19.0244L13.8693 19.1392C14.4283 19.4365 15.0641 19.5938 15.708 19.5938C17.8506 19.5938 19.5938 17.8795 19.5938 15.7723C19.5938 15.1748 19.4588 14.6055 19.1923 14.0804L19.0781 13.8549L19.1334 13.6083C19.2316 13.171 19.2773 12.6875 19.2773 12.0864C19.2773 8.18115 16.0524 5.00391 12.0886 5.00391C11.5936 5.00391 11.2006 5.03137 10.8514 5.09056L10.5889 5.13492L10.3629 4.99443C9.74382 4.60963 9.02806 4.40625 8.29308 4.40625C6.14992 4.40625 4.40625 6.12053 4.40625 8.22771C4.40625 8.90749 4.59027 9.57477 4.9384 10.1575L5.07861 10.3923L5.02341 10.6602C4.9156 11.1819 4.86328 11.6483 4.86328 12.0861C4.86328 16.0126 8.10452 19.207 12.0886 19.207C12.4735 19.207 12.8943 19.1629 13.4128 19.0683L13.6533 19.0244ZM16.5352 13.9288C16.5352 13.4231 16.4353 12.9884 16.2362 12.6365C16.0371 12.2862 15.757 11.9929 15.4048 11.7639C15.0585 11.5398 14.6334 11.3478 14.1425 11.1907C13.6572 11.0368 13.1084 10.8951 12.5114 10.7675C12.039 10.659 11.6953 10.5745 11.4904 10.5184C11.2901 10.4636 11.091 10.3858 10.8968 10.2894C10.7097 10.1965 10.5623 10.0845 10.4563 9.95819C10.3574 9.83762 10.2773 9.69836 10.2773 9.53137C10.2773 9.2585 10.4589 9.02861 10.7672 8.82825C11.0862 8.61978 11.5161 8.53354 12.0448 8.53354C12.6134 8.53354 13.0291 8.61031 13.2766 8.79735C13.5322 8.98933 13.7548 9.26344 13.9384 9.61157C14.0976 9.88348 14.2409 10.0731 14.379 10.1945C14.5274 10.3244 14.7418 10.3828 15.0149 10.3828C15.3153 10.3828 15.5708 10.2852 15.7722 10.0766C15.9735 9.86906 16.1133 9.63066 16.1133 9.36864C16.1133 9.09686 15.9971 8.81561 15.844 8.53299C15.692 8.2527 15.4519 7.98354 15.1268 7.73085C14.8052 7.48036 14.3945 7.2778 13.9091 7.1277C13.4252 6.97733 12.8455 6.90234 12.1864 6.90234C11.3631 6.90234 10.6343 7.01537 10.023 7.24072C9.40242 7.46841 8.91971 7.80226 8.59108 8.22894C8.25792 8.65906 8.0625 9.15852 8.0625 9.71292C8.0625 10.2946 8.24954 10.7879 8.56622 11.1825C8.87851 11.57 9.30437 11.8798 9.83446 12.104C10.3514 12.3222 11.0012 12.5151 11.7668 12.6784C12.3297 12.7966 12.7852 12.9087 13.121 13.0124C13.4413 13.1114 13.7074 13.2568 13.9089 13.4439C14.0996 13.6216 14.2041 13.8493 14.2041 14.1389C14.2041 14.505 14.0135 14.8054 13.6462 15.0545C13.2706 15.3095 12.7711 15.4102 12.1612 15.4102C11.7171 15.4102 11.3569 15.3751 11.0895 15.2487C10.8234 15.1246 10.6149 14.9636 10.4711 14.7742C10.3194 14.5751 10.177 14.3251 10.0462 14.0268C9.92949 13.7541 9.78488 13.5417 9.61404 13.3988C9.4362 13.2497 9.21744 13.1602 8.9642 13.1602C8.6559 13.1602 8.39676 13.2699 8.19406 13.4583C7.9904 13.6489 7.88672 13.8824 7.88672 14.1507C7.88672 14.581 8.04561 15.0269 8.36009 15.4751C8.66867 15.9196 9.07832 16.2808 9.57408 16.5468C10.2665 16.9128 11.1556 17.0977 12.2153 17.0977C13.0973 17.0977 13.8734 16.9618 14.5197 16.695C15.1733 16.4257 15.6771 16.0454 16.0187 15.5651C16.3614 15.0835 16.5345 14.5329 16.5352 13.9288Z" fill="white"/>
</g>
<defs>
<filter id="filter0_i" x="-4" y="-4" width="28" height="28" filterUnits="userSpaceOnUse" color-interpolation-filters="sRGB">
<feFlood flood-opacity="0" result="BackgroundImageFix"/>
<feBlend mode="normal" in="SourceGraphic" in2="BackgroundImageFix" result="shape"/>
<feColorMatrix in="SourceAlpha" type="matrix" values="0 0 0 0 0 0 0 0 0 0 0 0 0 0 0 0 0 0 127 0" result="hardAlpha"/>
<feOffset dx="-4" dy="-4"/>
<feGaussianBlur stdDeviation="4"/>
<feComposite in2="hardAlpha" operator="arithmetic" k2="-1" k3="1"/>
<feColorMatrix type="matrix" values="0 0 0 0 0 0 0 0 0 0 0 0 0 0 0 0 0 0 0.15 0"/>
<feBlend mode="normal" in2="shape" result="effect1_innerShadow"/>
</filter>
</defs>
</svg>

<svg width="24" height="24" fill="none" xmlns="http://www.w3.org/2000/svg"><g filter="url(#filter0_i)"><rect width="24" height="24" rx="6" fill="#00B5EE"/><path d="M15.708 21a5.35 5.35 0 01-2.277-.508 8.208 8.208 0 01-1.342.121c-4.76 0-8.632-3.825-8.632-8.527 0-.458.045-.934.138-1.449A5.172 5.172 0 013 8.227C3 5.346 5.374 3 8.293 3c.908 0 1.796.23 2.583.666.359-.047.75-.068 1.213-.068 2.3 0 4.458.88 6.079 2.48a8.384 8.384 0 012.516 6.008 8.66 8.66 0 01-.129 1.586 5.1 5.1 0 01.445 2.1C21 18.655 18.626 21 15.708 21zm-2.055-1.976l.216.115a3.928 3.928 0 001.839.455c2.143 0 3.886-1.715 3.886-3.822a3.7 3.7 0 00-.402-1.692l-.114-.225.055-.247c.099-.437.144-.92.144-1.522 0-3.905-3.225-7.082-7.188-7.082-.495 0-.888.027-1.238.087l-.262.044-.226-.14a3.916 3.916 0 00-2.07-.589c-2.143 0-3.887 1.715-3.887 3.822 0 .68.184 1.347.532 1.93l.14.234-.055.268a7.02 7.02 0 00-.16 1.426c0 3.927 3.242 7.121 7.226 7.121.384 0 .805-.044 1.324-.139l.24-.044zm2.882-5.095c0-.506-.1-.94-.299-1.293a2.526 2.526 0 00-.831-.872 5.31 5.31 0 00-1.262-.573 17.663 17.663 0 00-1.632-.424 28.35 28.35 0 01-1.02-.249c-.2-.054-.4-.132-.594-.229a1.351 1.351 0 01-.44-.33c-.1-.121-.18-.26-.18-.428 0-.273.182-.502.49-.703.32-.208.75-.294 1.278-.294.568 0 .984.076 1.232.263a2.4 2.4 0 01.661.815c.16.271.303.461.441.582.148.13.363.189.636.189.3 0 .556-.098.757-.306.201-.208.341-.446.341-.708 0-.272-.116-.553-.269-.836-.152-.28-.392-.55-.717-.802-.322-.25-.732-.453-1.218-.603-.484-.15-1.064-.226-1.723-.226-.823 0-1.552.113-2.163.339-.62.227-1.103.561-1.432.988-.333.43-.528.93-.528 1.484 0 .582.187 1.075.503 1.47.313.387.738.697 1.268.921.517.218 1.167.411 1.933.574.563.119 1.018.23 1.354.334.32.1.586.245.788.432a.91.91 0 01.295.695c0 .366-.19.666-.558.916-.375.255-.875.355-1.485.355-.444 0-.804-.035-1.072-.161a1.623 1.623 0 01-.618-.475 3.66 3.66 0 01-.425-.747c-.117-.273-.261-.485-.432-.628a.993.993 0 00-.65-.239c-.308 0-.567.11-.77.298a.92.92 0 00-.307.693c0 .43.159.876.473 1.324a3.44 3.44 0 001.214 1.072c.693.366 1.582.55 2.641.55.882 0 1.658-.135 2.305-.402.653-.27 1.157-.65 1.499-1.13a2.772 2.772 0 00.516-1.636z" fill="#fff"/></g><defs><filter id="filter0_i" x="-4" y="-4" width="28" height="28" filterUnits="userSpaceOnUse" color-interpolation-filters="sRGB"><feFlood flood-opacity="0" result="BackgroundImageFix"/><feBlend in="SourceGraphic" in2="BackgroundImageFix" result="shape"/><feColorMatrix in="SourceAlpha" values="0 0 0 0 0 0 0 0 0 0 0 0 0 0 0 0 0 0 127 0" result="hardAlpha"/><feOffset dx="-4" dy="-4"/><feGaussianBlur stdDeviation="4"/><feComposite in2="hardAlpha" operator="arithmetic" k2="-1" k3="1"/><feColorMatrix values="0 0 0 0 0 0 0 0 0 0 0 0 0 0 0 0 0 0 0.15 0"/><feBlend in2="shape" result="effect1_innerShadow"/></filter></defs></svg>
